images/video.svg

<svg width="25" height="19" viewBox="0 0 25 19" fill="none" xmlns="http://www.w3.org/2000/svg">
<path fill-rule="evenodd" clip-rule="evenodd" d="M4.59614 0.081098C4.40044 0.133257 4.09276 0.252334 3.9124 0.34574C3.73199 0.439146 3.4582 0.61317 3.30397 0.732487C3.14974 0.851757 2.92445 1.07357 2.80328 1.22538C2.68216 1.3772 2.50761 1.65285 2.41546 1.83793C2.32325 2.02301 2.20994 2.31505 2.1636 2.48691C2.10939 2.68815 2.0794 2.97908 2.0794 3.30415C2.0794 3.62922 2.10939 3.92016 2.1636 4.1214C2.20994 4.29326 2.32447 4.58775 2.41809 4.77586C2.51172 4.96397 2.69208 5.24467 2.81891 5.39966C2.94574 5.55465 3.17553 5.78136 3.32956 5.90346C3.48355 6.02562 3.75514 6.19541 3.93311 6.28079C4.11102 6.36622 4.42208 6.47774 4.62427 6.52865C4.86338 6.58884 5.15568 6.62095 5.46028 6.62047C5.71785 6.62009 6.07149 6.58692 6.24609 6.54673C6.42069 6.50659 6.74448 6.38583 6.96562 6.27839C7.22603 6.15191 7.48966 5.97192 7.71388 5.76761C7.90425 5.59411 8.14434 5.32995 8.24734 5.18064C8.35034 5.03132 8.49363 4.77115 8.56576 4.60246C8.6379 4.43373 8.72751 4.15375 8.76488 3.98021C8.80224 3.80666 8.83281 3.50246 8.83281 3.30415C8.83281 3.10585 8.80072 2.79218 8.76151 2.6071C8.72224 2.42201 8.59213 2.07507 8.47233 1.8361C8.32929 1.55083 8.14863 1.28783 7.94625 1.07025C7.77668 0.888052 7.47911 0.636774 7.28493 0.511928C7.09075 0.387083 6.76109 0.226615 6.55235 0.155323C6.24023 0.0487929 6.06441 0.0222566 5.56235 0.00600792C5.06264 -0.0101446 4.88731 0.00350814 4.59614 0.081098ZM13.4864 1.21379C13.3185 1.24966 13.0328 1.35071 12.8515 1.4383C12.6508 1.53526 12.3855 1.72486 12.1733 1.92297C11.9408 2.14007 11.7675 2.35606 11.6527 2.57195C11.558 2.74992 11.4415 3.02533 11.3937 3.18397C11.3378 3.36944 11.3073 3.62692 11.3081 3.90507C11.309 4.17144 11.3424 4.44858 11.395 4.62616C11.442 4.7848 11.5498 5.0444 11.6346 5.20304C11.7207 5.36413 11.9398 5.64007 12.1309 5.82808C12.3505 6.04422 12.5866 6.22031 12.7904 6.31997C12.965 6.40539 13.2389 6.50808 13.3989 6.54822C13.559 6.58836 13.8676 6.62119 14.0846 6.62119C14.3017 6.62119 14.6049 6.58899 14.7585 6.54961C14.912 6.51024 15.165 6.41472 15.3207 6.33742C15.4763 6.26007 15.7162 6.10922 15.8538 6.00221C15.9913 5.89519 16.2044 5.66896 16.3272 5.49946C16.4501 5.32995 16.6085 5.04248 16.6791 4.86062C16.7744 4.61539 16.8141 4.40777 16.8326 4.05679C16.8478 3.767 16.8342 3.47823 16.7974 3.31165C16.7643 3.1621 16.6591 2.87751 16.5636 2.67921C16.4358 2.41413 16.2963 2.22645 16.0368 1.97051C15.778 1.71539 15.5872 1.57727 15.3223 1.45344C15.1236 1.36056 14.8077 1.25259 14.6204 1.21351C14.4332 1.17447 14.1701 1.1439 14.0358 1.14553C13.9015 1.14717 13.6543 1.17788 13.4864 1.21379ZM5.97064 1.91162C6.11662 1.96542 6.3319 2.09247 6.44911 2.194C6.56627 2.29553 6.71259 2.47802 6.77428 2.5996C6.83596 2.72117 6.90389 2.92943 6.92523 3.0624C6.94663 3.19537 6.94711 3.40987 6.92636 3.53909C6.9056 3.66826 6.8428 3.86238 6.78678 3.97045C6.73081 4.07851 6.60461 4.246 6.5064 4.34272C6.40813 4.4394 6.20604 4.57338 6.05723 4.64044C5.84884 4.73433 5.7075 4.76231 5.4425 4.76216C5.19392 4.76202 5.0306 4.73245 4.8542 4.65563C4.71989 4.59718 4.52571 4.46925 4.42266 4.37142C4.31961 4.27355 4.17725 4.08534 4.10638 3.95314C3.99674 3.74873 3.97726 3.65167 3.97628 3.30415C3.9753 2.96437 3.99518 2.85688 4.09418 2.66618C4.15967 2.54003 4.29153 2.35942 4.38721 2.26486C4.48288 2.1703 4.64326 2.05152 4.74353 2.00089C4.84384 1.95027 5.00867 1.88965 5.10982 1.86619C5.21101 1.84273 5.38634 1.82139 5.49945 1.8187C5.61261 1.81605 5.82466 1.85788 5.97064 1.91162ZM14.7054 2.99264C14.8069 3.05874 14.9482 3.20383 15.0195 3.31502C15.1155 3.46467 15.1553 3.60101 15.1727 3.83945C15.1919 4.10471 15.177 4.20038 15.0883 4.38075C15.029 4.50127 14.9108 4.65775 14.8256 4.72846C14.7404 4.79918 14.5962 4.88778 14.5052 4.92532C14.4141 4.96287 14.2231 4.99359 14.0806 4.99359C13.9288 4.99359 13.7343 4.95489 13.6112 4.90023C13.4955 4.84893 13.3416 4.74462 13.2692 4.66847C13.1968 4.59232 13.1004 4.44349 13.0552 4.33772C13.01 4.23196 12.9729 4.03727 12.9729 3.90507C12.9729 3.77287 13.01 3.57817 13.0552 3.47241C13.1004 3.36665 13.1968 3.21868 13.2692 3.14364C13.3416 3.06855 13.463 2.97519 13.5389 2.9362C13.6149 2.89717 13.7687 2.84934 13.8808 2.82987C13.9929 2.8104 14.1828 2.81203 14.3027 2.83347C14.4227 2.85491 14.6039 2.92654 14.7054 2.99264ZM1.32739 7.55626C1.21418 7.59107 1.02444 7.67558 0.905717 7.74408C0.786991 7.81259 0.589587 7.97839 0.467052 8.11256C0.344467 8.24669 0.193606 8.47979 0.131728 8.63055L0.0192043 8.90466L0.00401557 13.1111C-0.00707073 16.18 0.00416209 17.3889 0.0456747 17.5818C0.07698 17.7273 0.159028 17.9495 0.228037 18.0757C0.296997 18.202 0.460263 18.4036 0.590808 18.5238C0.721353 18.644 0.953823 18.8003 1.10742 18.8712L1.38668 19H9.46942H17.5522L17.8323 18.8708C17.9863 18.7997 18.2208 18.6349 18.3533 18.5045C18.4857 18.3741 18.6489 18.161 18.7158 18.0308C18.7828 17.9008 18.8616 17.6668 18.8909 17.511C18.9265 17.3212 18.944 15.9156 18.944 13.2553C18.944 10.5914 18.9265 9.1894 18.8908 8.99913C18.8615 8.84308 18.7929 8.6282 18.7383 8.52162C18.6838 8.41499 18.5658 8.23866 18.4761 8.12968C18.3864 8.02074 18.2059 7.86393 18.075 7.78124C17.944 7.69856 17.7289 7.59866 17.5969 7.55924C17.3882 7.49694 16.3224 7.4879 9.445 7.49026C3.04371 7.49242 1.49388 7.50502 1.32739 7.55626ZM22.2875 9.70421C21.1604 10.3422 20.0844 10.9536 19.8964 11.0628L19.5545 11.2613V13.2547V15.2482L19.9941 15.4974C20.2358 15.6345 21.3127 16.246 22.3872 16.8564C24.0097 17.7781 24.3725 17.9662 24.5287 17.9663C24.6761 17.9664 24.7472 17.9342 24.8583 17.8171L25 17.6678V13.2951C25 10.1692 24.9844 8.89245 24.9454 8.81736C24.9155 8.75963 24.844 8.67502 24.7867 8.6293C24.7294 8.58363 24.6048 8.54575 24.5097 8.54517C24.372 8.54436 23.9187 8.78078 22.2875 9.70421Z" fill="white"/>
</svg>

<svg width="25" height="19" fill="none" xmlns="http://www.w3.org/2000/svg"><path fill-rule="evenodd" clip-rule="evenodd" d="M4.596.081a4.08 4.08 0 0 0-.684.265 4.83 4.83 0 0 0-.608.386c-.154.12-.38.342-.5.493a4.152 4.152 0 0 0-.389.613 4.256 4.256 0 0 0-.251.649 3.351 3.351 0 0 0-.085.817c0 .325.03.616.085.817.046.172.16.467.254.655s.274.469.4.624c.128.155.358.381.512.503.154.123.425.292.603.378.178.085.49.197.691.248.24.06.532.092.836.091.258 0 .611-.033.786-.073.175-.04.498-.161.72-.269a3.24 3.24 0 0 0 .748-.51c.19-.174.43-.438.533-.587.103-.15.247-.41.319-.579a4.12 4.12 0 0 0 .199-.622c.037-.173.068-.478.068-.676 0-.198-.032-.512-.071-.697a3.992 3.992 0 0 0-.29-.77 3.314 3.314 0 0 0-.526-.767 4.193 4.193 0 0 0-.661-.558 4.068 4.068 0 0 0-.733-.357C6.24.05 6.064.022 5.562.006c-.5-.016-.675-.002-.966.075Zm8.89 1.133a3.417 3.417 0 0 0-.635.224c-.2.097-.466.287-.678.485a2.54 2.54 0 0 0-.52.649 4.128 4.128 0 0 0-.26.612 2.607 2.607 0 0 0-.085.721c.001.266.034.544.087.721.047.159.155.418.24.577.086.161.305.437.496.625.22.216.456.392.66.492.174.085.448.188.608.228.16.04.469.073.686.073.217 0 .52-.032.673-.071.154-.04.407-.135.563-.213.155-.077.395-.228.533-.335.137-.107.35-.333.473-.503.123-.169.281-.457.352-.638.095-.246.135-.453.154-.804.015-.29.001-.579-.036-.745a3.628 3.628 0 0 0-.233-.633c-.128-.265-.268-.453-.527-.708-.259-.256-.45-.394-.715-.518a3.89 3.89 0 0 0-.702-.24 3.356 3.356 0 0 0-.584-.067 3.418 3.418 0 0 0-.55.068Zm-7.515.698c.146.053.36.18.478.282.117.102.264.284.325.406.062.121.13.33.151.462.022.133.022.348.001.477-.02.13-.083.323-.14.431a1.791 1.791 0 0 1-.28.373c-.098.096-.3.23-.449.297-.208.094-.35.122-.615.122-.248 0-.411-.03-.588-.106a1.786 1.786 0 0 1-.431-.285 1.985 1.985 0 0 1-.317-.418c-.11-.204-.129-.301-.13-.649 0-.34.02-.447.118-.638.066-.126.198-.307.293-.401.096-.095.256-.213.357-.264.1-.05.265-.111.366-.135a2.3 2.3 0 0 1 .39-.047c.113-.003.325.039.47.093Zm8.734 1.08c.102.067.243.212.315.323.096.15.135.286.153.524.019.266.004.361-.085.542-.059.12-.177.277-.262.347a1.52 1.52 0 0 1-.32.197 1.3 1.3 0 0 1-.894-.025 1.275 1.275 0 0 1-.343-.232 1.336 1.336 0 0 1-.214-.33 1.318 1.318 0 0 1-.082-.433c0-.132.037-.327.082-.433.045-.105.142-.253.214-.328a1.28 1.28 0 0 1 .27-.208c.076-.039.23-.087.342-.106a1.46 1.46 0 0 1 .422.003c.12.022.3.094.402.16ZM1.327 7.557c-.113.035-.303.12-.421.188a2.289 2.289 0 0 0-.439.369 2.126 2.126 0 0 0-.335.518l-.113.274-.015 4.206c-.011 3.069 0 4.278.042 4.47.031.146.113.369.182.495.069.126.232.328.363.448.13.12.363.276.516.347l.28.129h16.165l.28-.13a2.17 2.17 0 0 0 .521-.366 2.29 2.29 0 0 0 .363-.473c.067-.13.146-.364.175-.52.036-.19.053-1.595.053-4.256 0-2.664-.017-4.066-.053-4.256a2.14 2.14 0 0 0-.153-.477 2.654 2.654 0 0 0-.262-.392 2.017 2.017 0 0 0-.401-.349 2.342 2.342 0 0 0-.478-.222c-.209-.062-1.275-.071-8.152-.069-6.401.002-7.951.015-8.118.066Zm20.96 2.148c-1.127.638-2.203 1.25-2.39 1.359l-.342.198v3.987l.44.25 2.392 1.358c1.623.922 1.985 1.11 2.142 1.11.147 0 .218-.032.33-.149l.141-.15v-4.372c0-3.126-.016-4.403-.055-4.478a.709.709 0 0 0-.158-.188.524.524 0 0 0-.277-.084c-.138 0-.591.236-2.223 1.16Z" fill="#fff"/></svg>
